bootstrap/cloud-upload-fill.svg

<svg xmlns="http://www.w3.org/2000/svg" width="16" height="16" fill="currentColor" class="bi bi-cloud-upload-fill" viewBox="0 0 16 16">
  <path fill-rule="evenodd" d="M8 0a5.53 5.53 0 0 0-3.594 1.342c-.766.66-1.321 1.52-1.464 2.383C1.266 4.095 0 5.555 0 7.318 0 9.366 1.708 11 3.781 11H7.5V5.707L5.354 7.854a.5.5 0 1 1-.708-.708l3-3a.5.5 0 0 1 .708 0l3 3a.5.5 0 0 1-.708.708L8.5 5.707V11h4.188C14.502 11 16 9.57 16 7.773c0-1.636-1.242-2.969-2.834-3.194C12.923 1.999 10.69 0 8 0m-.5 14.5V11h1v3.5a.5.5 0 0 1-1 0"/>
</svg>

<svg viewBox="0 0 16 16" xmlns="http://www.w3.org/2000/svg"><path fill-rule="evenodd" d="M8 0v0C6.68 0 5.4.48 4.4 1.34 3.63 2 3.07 2.86 2.93 3.723c-1.68.37-2.95 1.83-2.95 3.593 0 2.04 1.708 3.68 3.781 3.68H7.48V5.703l-2.15 2.14v0c-.2.19-.52.19-.71 0 -.2-.2-.2-.52 0-.71l3-3v0c.19-.2.51-.2.7-.01 0 0 0 0 0 0l3 3v0c.19.19.19.51 0 .7 -.2.19-.52.19-.71 0l-2.15-2.15v5.293h4.18c1.81 0 3.31-1.43 3.31-3.23 0-1.64-1.25-2.97-2.84-3.194 -.25-2.58-2.48-4.58-5.166-4.58Zm-.5 14.5V11h1v3.5 0c0 .27-.23.5-.5.5 -.28 0-.5-.23-.5-.5Z"/></svg>
